Newaita-dark/apps/64/acroread.svg

<svg height="64" viewBox="0 0 64 64" width="64" xmlns="http://www.w3.org/2000/svg" xmlns:xlink="http://www.w3.org/1999/xlink"><linearGradient id="a" gradientUnits="userSpaceOnUse" x1="31.75304" x2="31.75304" y1="56.067872" y2="58.71396000006"><stop offset="0" stop-opacity=".27451"/><stop offset="1" stop-opacity="0"/></linearGradient><linearGradient id="b"><stop offset="0" stop-opacity=".313726"/><stop offset=".222222" stop-opacity=".27451"/><stop offset="1" stop-opacity="0"/></linearGradient><radialGradient id="c" cx="450.908936" cy="189.579361" gradientTransform="matrix(.00000035 -.156265 -.281277 -.0000002 100.292171 127.190665)" gradientUnits="userSpaceOnUse" r="21.166656" xlink:href="#b"/><radialGradient id="d" cx="450.908936" cy="189.579361" gradientTransform="matrix(-.00000035 .156265 .281277 .0000002 -36.786098 -15.054961)" gradientUnits="userSpaceOnUse" r="21.166656" xlink:href="#b"/><radialGradient id="e" cx="450.908936" cy="189.579361" gradientTransform="matrix(-.00000035 -.156265 .281277 -.0000002 -36.786098 127.190665)" gradientUnits="userSpaceOnUse" r="21.166656" xlink:href="#b"/><radialGradient id="f" cx="450.908936" cy="189.579361" gradientTransform="matrix(.00000035 .156265 -.281277 .0000002 100.292167 -15.054959)" gradientUnits="userSpaceOnUse" r="21.166656" xlink:href="#b"/><linearGradient id="g" gradientTransform="matrix(.150699 0 0 .434824 -11.708026 67.282696)" gradientUnits="userSpaceOnUse" x1="306.916656" x2="305.954559" y1="-25.791676" y2="-141.414581"><stop offset="0" stop-color="#f44336"/><stop offset="1" stop-color="#ef5350"/></linearGradient><linearGradient id="h"><stop offset="0" stop-color="#e0e0e0"/><stop offset="1" stop-color="#eee"/></linearGradient><linearGradient id="i" gradientUnits="userSpaceOnUse" x1="275.166308" x2="275.166308" xlink:href="#h" y1="233.49969318561" y2="-168.66647475188"/><linearGradient id="j"><stop offset="0" stop-color="#424242"/><stop offset="1" stop-color="#616161"/></linearGradient><linearGradient id="k" gradientTransform="matrix(4.556143 0 0 13.146184 -353.972656 2034.180176)" gradientUnits="userSpaceOnUse" x1="165.484848" x2="165.484848" xlink:href="#j" y1="-25.791672" y2="-141.414581"/><linearGradient id="l" gradientUnits="userSpaceOnUse" x1="359.833048" x2="349.249728" xlink:href="#h" y1="233.4994349526" y2="-168.66671710991"/><linearGradient id="m" gradientUnits="userSpaceOnUse" x1="13.23043600013" x2="13.23043600013" xlink:href="#j" y1="21.007244375" y2="18.36115725002"/><linearGradient id="n" gradientUnits="userSpaceOnUse" x1="13.23043600013" x2="13.23043600013" xlink:href="#j" y1="42.837455375" y2="40.19136825002"/><path d="m15.875 56.066406h31.753906v2.648438h-31.753906zm0 0" fill="url(#a)"/><path d="m47.628906 56.066406h5.292969v-2.644531h-5.292969zm0 0" fill="url(#c)"/><path d="m15.875 56.066406h-5.289062v2.648438h5.289062zm0 0" fill="url(#d)"/><path d="m15.875 56.066406h-5.289062v-2.644531h5.289062zm0 0" fill="url(#e)"/><path d="m47.628906 56.066406h5.292969v2.648438h-5.292969zm0 0" fill="url(#f)"/><path d="m13.230469 5.792969h37.046875c1.460937 0 2.644531 1.183593 2.644531 2.644531v44.984375c0 1.460937-1.183594 2.644531-2.644531 2.644531h-37.046875c-1.460938 0-2.644531-1.183594-2.644531-2.644531v-44.984375c0-1.460938 1.183593-2.644531 2.644531-2.644531zm0 0" fill="url(#g)"/><path d="m50.949219 25.644531v.011719c-.191407 0-.386719 0-.566407.035156-3.328124.382813-6.785156 6.953125-7.023437 13.46875-4.375 2.765625-9.046875 5.3125-13.695313 7.300782-2.292968-.78125-7.613281-2.730469-11.035156-1.964844-2.164062.472656-3.730468 2.980468-3.375 4.699218-.027344-.066406-.046875-.136718-.050781-.210937.007813.160156.054687.328125.132813.5.011718.03125.023437.066406.039062.097656-.003906-.011719-.003906-.019531-.007812-.03125.546874 1.085938 2.269531 2.277344 2.730468 2.277344 2.527344.472656 7.726563-1.085937 10.902344-2.265625 4.203125 1.894531 9.101562 4.289062 13.3125 6.503906h7.355469c-1.03125-4.476562-1.804688-10.238281-2.292969-15.046875 2.21875-1.589843 4.121094-3.320312 5.546875-5.039062v-4.210938c-1.34375 1.53125-3.410156 3.238281-5.894531 4.964844.082031-7.195313 1.453125-12.144531 5.835937-10.324219.019531.007813.039063.015625.058594.023438v-.273438c-.039063-.015625-.074219-.03125-.113281-.050781-.671875-.464844-1.289063-.429687-1.859375-.464844zm-7.246094 17.210938c.605469 4.390625.722656 5.566406 1.464844 11.429687-3.523438-2.050781-7.628907-4.433594-11.324219-6.144531 3.597656-1.476563 6.617188-3.199219 9.859375-5.285156zm-25.367187 3.875c.796874-.003907 1.660156.09375 2.46875.21875.171874.019531.402343.039062.605468.058593 1.425782.203126 2.378906.382813 3.050782.5625l.003906.035157c.441406.179687.90625.375 1.386718.578125-2.582031 1.585937-9.484374 2.558594-10.519531 1.144531-.28125-2.03125 1.191407-2.585937 3.003907-2.597656zm31.273437 8.695312c.054687.203125.074219.417969.074219.640625h.59375c.097656 0 .195312-.003906.289062-.015625-.3125-.210937-.628906-.421875-.957031-.625zm0 0" fill="#fff" fill-opacity=".392157"/><path d="m148.17335-147.506445v359.840637h243.414255c5.874439 0 10.592739-4.7183 10.592739-10.592739v-338.65516c0-5.874439-4.7183-10.592738-10.592739-10.592738zm0 0" style="fill:none;stroke-width:8;stroke-linecap:round;stroke-linejoin:round;stroke-dasharray:16.000002 16.000002;stroke-dashoffset:7.200001;stroke:url(#i)" transform="matrix(.125012 0 0 .125012 0 26.877566)"/><path d="m400.001193 175.140764c-44.287112 0-79.952999 35.665888-79.952999 79.952999v1360.027676c0 44.287112 35.665887 79.952999 79.952999 79.952999h119.988548v-1519.933674zm0 0" fill="url(#k)" stroke="#212121" stroke-linecap="round" stroke-width="11.338583" transform="scale(.0330761)"/><path d="m13.230469 55.917969c-1.464844 0-2.644531-1.179688-2.644531-2.644531v-.332032c0 1.464844 1.179687 2.644532 2.644531 2.644532h37.046875c1.464844 0 2.644531-1.179688 2.644531-2.644532v.332032c0 1.464843-1.179687 2.644531-2.644531 2.644531zm0 0" fill-opacity=".196078"/><path d="m328.093669-168.660675v254.006993c15.873484-42.339706 26.434975-42.339706 42.308459 0v-254.006993zm0 0" fill="url(#l)" stroke="#212121" stroke-linecap="round" stroke-linejoin="round" stroke-width="3" transform="matrix(.125012 0 0 .125012 0 26.877566)"/><path d="m13.230469 5.941406c-1.464844 0-2.644531 1.179688-2.644531 2.644532v.332031c0-1.464844 1.179687-2.648438 2.644531-2.644531h37.046875c1.464844-.003907 2.644531 1.179687 2.644531 2.644531v-.332031c0-1.464844-1.179687-2.644532-2.644531-2.644532zm0 0" fill="#fff" fill-opacity=".392157"/><path d="m13.230469 5.605469c-1.566407 0-2.832031 1.265625-2.832031 2.832031v44.984375c0 1.566406 1.265624 2.832031 2.832031 2.832031h37.046875c1.566406 0 2.832031-1.265625 2.832031-2.832031v-44.984375c0-1.566406-1.265625-2.832031-2.832031-2.832031zm0 .375h37.046875c1.363281 0 2.457031 1.09375 2.457031 2.457031v44.984375c0 1.367187-1.09375 2.457031-2.457031 2.457031h-37.046875c-1.367188 0-2.457031-1.089844-2.457031-2.457031v-44.984375c0-1.363281 1.089843-2.457031 2.457031-2.457031zm0 0" fill="#212121"/><path d="m10.585938 18.359375h6.613281v2.648437h-6.613281zm0 0" fill="url(#m)"/><path d="m10.585938 21.007812v.992188h6.613281v-.992188zm0 0" fill-opacity=".235294"/><path d="m10.585938 18.359375v.664063h6.613281v-.664063zm0 0" fill="#fff" fill-opacity=".392157"/><path d="m84.679427-20.514265h52.901198v21.185477h-52.901198zm0 0" fill="none" stroke="#212121" stroke-linecap="round" stroke-linejoin="round" stroke-width="3" transform="matrix(.125012 0 0 .125012 -.000002 20.923903)"/><path d="m10.585938 40.191406h6.613281v2.644532h-6.613281zm0 0" fill="url(#n)"/><path d="m10.585938 42.835938v.992187h6.613281v-.992187zm0 0" fill-opacity=".235294"/><path d="m10.585938 40.191406v.660156h6.613281v-.660156zm0 0" fill="#fff" fill-opacity=".392157"/><path d="m84.679427-20.499704h52.901198v21.15423h-52.901198zm0 0" fill="none" stroke="#212121" stroke-linecap="round" stroke-linejoin="round" stroke-width="3" transform="matrix(.125012 0 0 .125012 -.000002 42.754114)"/></svg>

<?xml version="1.0" encoding="UTF-8"?>
<svg xmlns="http://www.w3.org/2000/svg" xmlns:xlink="http://www.w3.org/1999/xlink" width="64px" height="64px" viewBox="0 0 64 64" version="1.1">
<defs>
<linearGradient id="linear0" gradientUnits="userSpaceOnUse" x1="254" y1="233.5" x2="254" y2="254.666672" gradientTransform="matrix(0.125012,0,0,0.125012,-0.00000763012,26.87757)">
<stop offset="0" style="stop-color:rgb(0%,0%,0%);stop-opacity:0.27451;"/>
<stop offset="1" style="stop-color:rgb(0%,0%,0%);stop-opacity:0;"/>
</linearGradient>
<radialGradient id="radial0" gradientUnits="userSpaceOnUse" cx="450.908936" cy="189.579361" fx="450.908936" fy="189.579361" r="21.166656" gradientTransform="matrix(0.000000348341,-0.156265,-0.281277,-0.000000203077,100.292171,127.190665)">
<stop offset="0" style="stop-color:rgb(0%,0%,0%);stop-opacity:0.313726;"/>
<stop offset="0.222222" style="stop-color:rgb(0%,0%,0%);stop-opacity:0.27451;"/>
<stop offset="1" style="stop-color:rgb(0%,0%,0%);stop-opacity:0;"/>
</radialGradient>
<radialGradient id="radial1" gradientUnits="userSpaceOnUse" cx="450.908936" cy="189.579361" fx="450.908936" fy="189.579361" r="21.166656" gradientTransform="matrix(-0.000000348341,0.156265,0.281277,0.000000203077,-36.786098,-15.054961)">
<stop offset="0" style="stop-color:rgb(0%,0%,0%);stop-opacity:0.313726;"/>
<stop offset="0.222222" style="stop-color:rgb(0%,0%,0%);stop-opacity:0.27451;"/>
<stop offset="1" style="stop-color:rgb(0%,0%,0%);stop-opacity:0;"/>
</radialGradient>
<radialGradient id="radial2" gradientUnits="userSpaceOnUse" cx="450.908936" cy="189.579361" fx="450.908936" fy="189.579361" r="21.166656" gradientTransform="matrix(-0.000000348341,-0.156265,0.281277,-0.000000203077,-36.786098,127.190665)">
<stop offset="0" style="stop-color:rgb(0%,0%,0%);stop-opacity:0.313726;"/>
<stop offset="0.222222" style="stop-color:rgb(0%,0%,0%);stop-opacity:0.27451;"/>
<stop offset="1" style="stop-color:rgb(0%,0%,0%);stop-opacity:0;"/>
</radialGradient>
<radialGradient id="radial3" gradientUnits="userSpaceOnUse" cx="450.908936" cy="189.579361" fx="450.908936" fy="189.579361" r="21.166656" gradientTransform="matrix(0.000000348341,0.156265,-0.281277,0.000000203077,100.292167,-15.054959)">
<stop offset="0" style="stop-color:rgb(0%,0%,0%);stop-opacity:0.313726;"/>
<stop offset="0.222222" style="stop-color:rgb(0%,0%,0%);stop-opacity:0.27451;"/>
<stop offset="1" style="stop-color:rgb(0%,0%,0%);stop-opacity:0;"/>
</radialGradient>
<linearGradient id="linear1" gradientUnits="userSpaceOnUse" x1="306.916656" y1="-25.791676" x2="305.954559" y2="-141.414581" gradientTransform="matrix(0.150699,0,0,0.434824,-11.708026,67.282696)">
<stop offset="0" style="stop-color:rgb(95.686275%,26.274511%,21.176471%);stop-opacity:1;"/>
<stop offset="1" style="stop-color:rgb(93.725491%,32.549021%,31.37255%);stop-opacity:1;"/>
</linearGradient>
<linearGradient id="linear2" gradientUnits="userSpaceOnUse" x1="1040" y1="1695.118164" x2="1040" y2="175.118134" gradientTransform="matrix(0.264583,0,0,0.264583,-0.0000123333,-214.999756)">
<stop offset="0" style="stop-color:rgb(87.843138%,87.843138%,87.843138%);stop-opacity:1;"/>
<stop offset="1" style="stop-color:rgb(93.333334%,93.333334%,93.333334%);stop-opacity:1;"/>
</linearGradient>
<linearGradient id="linear3" gradientUnits="userSpaceOnUse" x1="165.484848" y1="-25.791672" x2="165.484848" y2="-141.414581" gradientTransform="matrix(4.556143,0,0,13.146184,-353.972656,2034.180176)">
<stop offset="0" style="stop-color:rgb(25.882354%,25.882354%,25.882354%);stop-opacity:1;"/>
<stop offset="1" style="stop-color:rgb(38.039216%,38.039216%,38.039216%);stop-opacity:1;"/>
</linearGradient>
<linearGradient id="linear4" gradientUnits="userSpaceOnUse" x1="880" y1="1695.117188" x2="840" y2="175.117218" gradientTransform="matrix(0.264583,0,0,0.264583,127.000008,-214.999756)">
<stop offset="0" style="stop-color:rgb(87.843138%,87.843138%,87.843138%);stop-opacity:1;"/>
<stop offset="1" style="stop-color:rgb(93.333334%,93.333334%,93.333334%);stop-opacity:1;"/>
</linearGradient>
<linearGradient id="linear5" gradientUnits="userSpaceOnUse" x1="105.833344" y1="0.666667" x2="105.833344" y2="-20.499998" gradientTransform="matrix(0.125012,0,0,0.125012,-0.00000166683,20.923903)">
<stop offset="0" style="stop-color:rgb(25.882354%,25.882354%,25.882354%);stop-opacity:1;"/>
<stop offset="1" style="stop-color:rgb(38.039216%,38.039216%,38.039216%);stop-opacity:1;"/>
</linearGradient>
<linearGradient id="linear6" gradientUnits="userSpaceOnUse" x1="105.833344" y1="0.666667" x2="105.833344" y2="-20.499998" gradientTransform="matrix(0.125012,0,0,0.125012,-0.00000166683,42.754114)">
<stop offset="0" style="stop-color:rgb(25.882354%,25.882354%,25.882354%);stop-opacity:1;"/>
<stop offset="1" style="stop-color:rgb(38.039216%,38.039216%,38.039216%);stop-opacity:1;"/>
</linearGradient>
</defs>
<g id="surface1">
<path style=" stroke:none;fill-rule:nonzero;fill:url(#linear0);" d="M 15.875 56.066406 L 47.628906 56.066406 L 47.628906 58.714844 L 15.875 58.714844 Z M 15.875 56.066406 "/>
<path style=" stroke:none;fill-rule:nonzero;fill:url(#radial0);" d="M 47.628906 56.066406 L 52.921875 56.066406 L 52.921875 53.421875 L 47.628906 53.421875 Z M 47.628906 56.066406 "/>
<path style=" stroke:none;fill-rule:nonzero;fill:url(#radial1);" d="M 15.875 56.066406 L 10.585938 56.066406 L 10.585938 58.714844 L 15.875 58.714844 Z M 15.875 56.066406 "/>
<path style=" stroke:none;fill-rule:nonzero;fill:url(#radial2);" d="M 15.875 56.066406 L 10.585938 56.066406 L 10.585938 53.421875 L 15.875 53.421875 Z M 15.875 56.066406 "/>
<path style=" stroke:none;fill-rule:nonzero;fill:url(#radial3);" d="M 47.628906 56.066406 L 52.921875 56.066406 L 52.921875 58.714844 L 47.628906 58.714844 Z M 47.628906 56.066406 "/>
<path style=" stroke:none;fill-rule:nonzero;fill:url(#linear1);" d="M 13.230469 5.792969 L 50.277344 5.792969 C 51.738281 5.792969 52.921875 6.976562 52.921875 8.4375 L 52.921875 53.421875 C 52.921875 54.882812 51.738281 56.066406 50.277344 56.066406 L 13.230469 56.066406 C 11.769531 56.066406 10.585938 54.882812 10.585938 53.421875 L 10.585938 8.4375 C 10.585938 6.976562 11.769531 5.792969 13.230469 5.792969 Z M 13.230469 5.792969 "/>
<path style=" stroke:none;fill-rule:nonzero;fill:rgb(100%,100%,100%);fill-opacity:0.392157;" d="M 50.949219 25.644531 L 50.949219 25.65625 C 50.757812 25.65625 50.5625 25.65625 50.382812 25.691406 C 47.054688 26.074219 43.597656 32.644531 43.359375 39.160156 C 38.984375 41.925781 34.3125 44.472656 29.664062 46.460938 C 27.371094 45.679688 22.050781 43.730469 18.628906 44.496094 C 16.464844 44.96875 14.898438 47.476562 15.253906 49.195312 C 15.226562 49.128906 15.207031 49.058594 15.203125 48.984375 C 15.210938 49.144531 15.257812 49.3125 15.335938 49.484375 C 15.347656 49.515625 15.359375 49.550781 15.375 49.582031 C 15.371094 49.570312 15.371094 49.5625 15.367188 49.550781 C 15.914062 50.636719 17.636719 51.828125 18.097656 51.828125 C 20.625 52.300781 25.824219 50.742188 29 49.5625 C 33.203125 51.457031 38.101562 53.851562 42.3125 56.066406 L 49.667969 56.066406 C 48.636719 51.589844 47.863281 45.828125 47.375 41.019531 C 49.59375 39.429688 51.496094 37.699219 52.921875 35.980469 L 52.921875 31.769531 C 51.578125 33.300781 49.511719 35.007812 47.027344 36.734375 C 47.109375 29.539062 48.480469 24.589844 52.863281 26.410156 C 52.882812 26.417969 52.902344 26.425781 52.921875 26.433594 L 52.921875 26.160156 C 52.882812 26.144531 52.847656 26.128906 52.808594 26.109375 C 52.136719 25.644531 51.519531 25.679688 50.949219 25.644531 Z M 43.703125 42.855469 C 44.308594 47.246094 44.425781 48.421875 45.167969 54.285156 C 41.644531 52.234375 37.539062 49.851562 33.84375 48.140625 C 37.441406 46.664062 40.460938 44.941406 43.703125 42.855469 Z M 18.335938 46.730469 C 19.132812 46.726562 19.996094 46.824219 20.804688 46.949219 C 20.976562 46.96875 21.207031 46.988281 21.410156 47.007812 C 22.835938 47.210938 23.789062 47.390625 24.460938 47.570312 L 24.464844 47.605469 C 24.90625 47.785156 25.371094 47.980469 25.851562 48.183594 C 23.269531 49.769531 16.367188 50.742188 15.332031 49.328125 C 15.050781 47.296875 16.523438 46.742188 18.335938 46.730469 Z M 49.609375 55.425781 C 49.664062 55.628906 49.683594 55.84375 49.683594 56.066406 L 50.277344 56.066406 C 50.375 56.066406 50.472656 56.0625 50.566406 56.050781 C 50.253906 55.839844 49.9375 55.628906 49.609375 55.425781 Z M 49.609375 55.425781 "/>
<path style="fill:none;stroke-width:8;stroke-linecap:round;stroke-linejoin:round;stroke:url(#linear2);stroke-dasharray:16.000002,16.000002;stroke-dashoffset:7.200001;stroke-miterlimit:4;" d="M 148.17335 -147.506445 L 148.17335 212.334192 L 391.587605 212.334192 C 397.462044 212.334192 402.180344 207.615892 402.180344 201.741453 L 402.180344 -136.913707 C 402.180344 -142.788146 397.462044 -147.506445 391.587605 -147.506445 Z M 148.17335 -147.506445 " transform="matrix(0.125012,0,0,0.125012,0,26.877566)"/>
<path style="fill-rule:nonzero;fill:url(#linear3);stroke-width:11.338583;stroke-linecap:round;stroke-linejoin:miter;stroke:rgb(12.941177%,12.941177%,12.941177%);stroke-opacity:1;stroke-miterlimit:4;" d="M 400.001193 175.140764 C 355.714081 175.140764 320.048194 210.806652 320.048194 255.093763 L 320.048194 1615.121439 C 320.048194 1659.408551 355.714081 1695.074438 400.001193 1695.074438 L 519.989741 1695.074438 L 519.989741 175.140764 Z M 400.001193 175.140764 " transform="matrix(0.0330761,0,0,0.0330761,0,0)"/>
<path style=" stroke:none;fill-rule:nonzero;fill:rgb(0%,0%,0%);fill-opacity:0.196078;" d="M 13.230469 55.917969 C 11.765625 55.917969 10.585938 54.738281 10.585938 53.273438 L 10.585938 52.941406 C 10.585938 54.40625 11.765625 55.585938 13.230469 55.585938 L 50.277344 55.585938 C 51.742188 55.585938 52.921875 54.40625 52.921875 52.941406 L 52.921875 53.273438 C 52.921875 54.738281 51.742188 55.917969 50.277344 55.917969 Z M 13.230469 55.917969 "/>
<path style="fill-rule:nonzero;fill:url(#linear4);stroke-width:3;stroke-linecap:round;stroke-linejoin:round;stroke:rgb(12.941177%,12.941177%,12.941177%);stroke-opacity:1;stroke-miterlimit:4;" d="M 328.093669 -168.660675 L 328.093669 85.346318 C 343.967153 43.006612 354.528644 43.006612 370.402128 85.346318 L 370.402128 -168.660675 Z M 328.093669 -168.660675 " transform="matrix(0.125012,0,0,0.125012,0,26.877566)"/>
<path style=" stroke:none;fill-rule:nonzero;fill:rgb(100%,100%,100%);fill-opacity:0.392157;" d="M 13.230469 5.941406 C 11.765625 5.941406 10.585938 7.121094 10.585938 8.585938 L 10.585938 8.917969 C 10.585938 7.453125 11.765625 6.269531 13.230469 6.273438 L 50.277344 6.273438 C 51.742188 6.269531 52.921875 7.453125 52.921875 8.917969 L 52.921875 8.585938 C 52.921875 7.121094 51.742188 5.941406 50.277344 5.941406 Z M 13.230469 5.941406 "/>
<path style=" stroke:none;fill-rule:nonzero;fill:rgb(12.941177%,12.941177%,12.941177%);fill-opacity:1;" d="M 13.230469 5.605469 C 11.664062 5.605469 10.398438 6.871094 10.398438 8.4375 L 10.398438 53.421875 C 10.398438 54.988281 11.664062 56.253906 13.230469 56.253906 L 50.277344 56.253906 C 51.84375 56.253906 53.109375 54.988281 53.109375 53.421875 L 53.109375 8.4375 C 53.109375 6.871094 51.84375 5.605469 50.277344 5.605469 Z M 13.230469 5.980469 L 50.277344 5.980469 C 51.640625 5.980469 52.734375 7.074219 52.734375 8.4375 L 52.734375 53.421875 C 52.734375 54.789062 51.640625 55.878906 50.277344 55.878906 L 13.230469 55.878906 C 11.863281 55.878906 10.773438 54.789062 10.773438 53.421875 L 10.773438 8.4375 C 10.773438 7.074219 11.863281 5.980469 13.230469 5.980469 Z M 13.230469 5.980469 "/>
<path style=" stroke:none;fill-rule:nonzero;fill:url(#linear5);" d="M 10.585938 18.359375 L 17.199219 18.359375 L 17.199219 21.007812 L 10.585938 21.007812 Z M 10.585938 18.359375 "/>
<path style=" stroke:none;fill-rule:nonzero;fill:rgb(0%,0%,0%);fill-opacity:0.235294;" d="M 10.585938 21.007812 L 10.585938 22 L 17.199219 22 L 17.199219 21.007812 Z M 10.585938 21.007812 "/>
<path style=" stroke:none;fill-rule:nonzero;fill:rgb(100%,100%,100%);fill-opacity:0.392157;" d="M 10.585938 18.359375 L 10.585938 19.023438 L 17.199219 19.023438 L 17.199219 18.359375 Z M 10.585938 18.359375 "/>
<path style="fill:none;stroke-width:3;stroke-linecap:round;stroke-linejoin:round;stroke:rgb(12.941177%,12.941177%,12.941177%);stroke-opacity:1;stroke-miterlimit:4;" d="M 84.679427 -20.514265 L 137.580625 -20.514265 L 137.580625 0.671212 L 84.679427 0.671212 Z M 84.679427 -20.514265 " transform="matrix(0.125012,0,0,0.125012,-0.00000166683,20.923903)"/>
<path style=" stroke:none;fill-rule:nonzero;fill:url(#linear6);" d="M 10.585938 40.191406 L 17.199219 40.191406 L 17.199219 42.835938 L 10.585938 42.835938 Z M 10.585938 40.191406 "/>
<path style=" stroke:none;fill-rule:nonzero;fill:rgb(0%,0%,0%);fill-opacity:0.235294;" d="M 10.585938 42.835938 L 10.585938 43.828125 L 17.199219 43.828125 L 17.199219 42.835938 Z M 10.585938 42.835938 "/>
<path style=" stroke:none;fill-rule:nonzero;fill:rgb(100%,100%,100%);fill-opacity:0.392157;" d="M 10.585938 40.191406 L 10.585938 40.851562 L 17.199219 40.851562 L 17.199219 40.191406 Z M 10.585938 40.191406 "/>
<path style="fill:none;stroke-width:3;stroke-linecap:round;stroke-linejoin:round;stroke:rgb(12.941177%,12.941177%,12.941177%);stroke-opacity:1;stroke-miterlimit:4;" d="M 84.679427 -20.499704 L 137.580625 -20.499704 L 137.580625 0.654526 L 84.679427 0.654526 Z M 84.679427 -20.499704 " transform="matrix(0.125012,0,0,0.125012,-0.00000166683,42.754114)"/>
</g>
</svg>
